X: 4163
T: Blue Keys, The
R: reel
M: 4/4
K: Aminor
|:A2 d/e/g ad{d}e2|dec'a e2dc|{c}d2de gad2-|d2dc dege|
A2 d/e/g ad{d}e2|dec'a e2dc|{c}d2dc deg2|dege a4:|
|:z2 d'c' d'e'a2-|a2g2 e2d2-|d2dc de g2|ddde c2A2|
z2 d'c' d'e'a2-|aage c'4|c'd'c'a g2 a2|ged2 d/e/gdc:|

